src/svgs/clinic.svg

<svg xmlns="http://www.w3.org/2000/svg" viewBox="0 0 24 24" width="512" height="512"><path d="M12 2L2 10h2v12h16V10h2zm4 13h-3v3h-2v-3H8v-2h3v-3h2v3h3z"/></svg>

<svg xmlns="http://www.w3.org/2000/svg" viewBox="0 0 24 24"><path d="M12,2,2,10H4V22H20V10h2Zm4,13H13v3H11V15H8V13h3V10h2v3h3Z"/></svg>
